X:3127
T:Mamma mia, vorria, vorria
T:(C major version)
C:anon.
O:Italy
Z:Transcribed by Frank Nordberg - http://www.musicaviva.com
F:http://abc.musicaviva.com/tunes/italy/mamma-mia-vorria-c.abc
M:3/4
L:1/4
K:C
"C"E2E|"C"EDE|"G7"GFE"G7"|E2D:|
|:"C"GAB|"F"A2A|"F"FGA|"G"G3|
"C"EEE|"F"F2F|"G7"AGF|"C"E3:|
W:
W:
W:  From Musica Viva - http://www.musicaviva.com
W:  the Internet center for free sheet music downloads.
